resources/icons/color/externaldatamart.svg

<svg width="64" height="64" viewBox="0 0 64 64" fill="none" xmlns="http://www.w3.org/2000/svg">
<path d="M4 17C4 13.134 7.13401 10 11 10H53C56.866 10 60 13.134 60 17V47C60 50.866 56.866 54 53 54H11C7.13401 54 4 50.866 4 47V17Z" fill="url(#paint0_linear_41743_62735)"/>
<path d="M4 17C4 13.134 7.13401 10 11 10H53C56.866 10 60 13.134 60 17V47C60 50.866 56.866 54 53 54H11C7.13401 54 4 50.866 4 47V17Z" fill="url(#paint1_radial_41743_62735)" fill-opacity="0.2"/>
<path fill-rule="evenodd" clip-rule="evenodd" d="M53 11H11C7.68629 11 5 13.6863 5 17V47C5 50.3137 7.68629 53 11 53H53C56.3137 53 59 50.3137 59 47V17C59 13.6863 56.3137 11 53 11ZM11 10C7.13401 10 4 13.134 4 17V47C4 50.866 7.13401 54 11 54H53C56.866 54 60 50.866 60 47V17C60 13.134 56.866 10 53 10H11Z" fill="url(#paint2_linear_41743_62735)"/>
<path d="M32 36.9663C32.8284 36.9663 33.5 36.2947 33.5 35.4663C33.5 34.6379 32.8284 33.9663 32 33.9663C31.1716 33.9663 30.5 34.6379 30.5 35.4663C30.5 36.2947 31.1716 36.9663 32 36.9663Z" fill="url(#paint3_linear_41743_62735)"/>
<path d="M27.5 35.4663C27.5 36.2947 26.8284 36.9663 26 36.9663C25.1716 36.9663 24.5 36.2947 24.5 35.4663C24.5 34.6379 25.1716 33.9663 26 33.9663C26.8284 33.9663 27.5 34.6379 27.5 35.4663Z" fill="url(#paint4_linear_41743_62735)"/>
<path d="M38 36.9663C38.8284 36.9663 39.5 36.2947 39.5 35.4663C39.5 34.6379 38.8284 33.9663 38 33.9663C37.1716 33.9663 36.5 34.6379 36.5 35.4663C36.5 36.2947 37.1716 36.9663 38 36.9663Z" fill="url(#paint5_linear_41743_62735)"/>
<path fill-rule="evenodd" clip-rule="evenodd" d="M23.5727 22.4507C23.2381 22.4507 22.9189 22.5911 22.6928 22.8378L18.3161 27.6124C17.6143 28.378 18.1574 29.6126 19.196 29.6126H21V39.6441C21 40.9626 22.0944 42.0314 23.4444 42.0314H40.5556C41.9056 42.0314 43 40.9626 43 39.6441V29.6126H44.804C45.8426 29.6126 46.3857 28.378 45.6839 27.6124L41.3072 22.8378C41.0811 22.5911 40.7619 22.4507 40.4273 22.4507H23.5727ZM22 29.6126H42V39.6441C42 40.3881 41.3757 41.0314 40.5556 41.0314H23.4444C22.6243 41.0314 22 40.3881 22 39.6441V29.6126Z" fill="url(#paint6_linear_41743_62735)"/>
<path d="M40 52.5C40 48.3579 43.3579 45 47.5 45H56.5C60.6421 45 64 48.3579 64 52.5V52.5C64 56.6421 60.6421 60 56.5 60H47.5C43.3579 60 40 56.6421 40 52.5V52.5Z" fill="#F5F5F5"/>
<path d="M41 52.5C41 48.9101 43.9101 46 47.5 46H48.5C48.7761 46 49 46.2239 49 46.5C49 46.7761 48.7761 47 48.5 47H47.5C44.4624 47 42 49.4624 42 52.5C42 55.5376 44.4624 58 47.5 58H48.5C48.7761 58 49 58.2239 49 58.5C49 58.7761 48.7761 59 48.5 59H47.5C43.9101 59 41 56.0899 41 52.5Z" fill="url(#paint7_linear_41743_62735)"/>
<path d="M63 52.5C63 56.0899 60.0899 59 56.5 59H55.5C55.2239 59 55 58.7761 55 58.5C55 58.2239 55.2239 58 55.5 58H56.5C59.5376 58 62 55.5376 62 52.5C62 49.4624 59.5376 47 56.5 47H55.5C55.2239 47 55 46.7761 55 46.5C55 46.2239 55.2239 46 55.5 46H56.5C60.0898 46 63 48.9102 63 52.5Z" fill="url(#paint8_linear_41743_62735)"/>
<path d="M47.5 51.979C47.2239 51.979 47 52.2029 47 52.479C47 52.7551 47.2239 52.979 47.5 52.979H57.0938C57.3699 52.979 57.5938 52.7551 57.5938 52.479C57.5938 52.2029 57.3699 51.979 57.0938 51.979H47.5Z" fill="url(#paint9_linear_41743_62735)"/>
<defs>
<linearGradient id="paint0_linear_41743_62735" x1="19.5556" y1="10" x2="23.9546" y2="54.7902" gradientUnits="userSpaceOnUse">
<stop stop-color="white"/>
<stop offset="1" stop-color="#EBEBEB"/>
</linearGradient>
<radialGradient id="paint1_radial_41743_62735" cx="0" cy="0" r="1" gradientUnits="userSpaceOnUse" gradientTransform="translate(21.8889 21.4583) rotate(49.6859) scale(45.6825 42.2557)">
<stop offset="0.177083" stop-color="white"/>
<stop offset="1" stop-color="#B8B8B8"/>
</radialGradient>
<linearGradient id="paint2_linear_41743_62735" x1="22.0833" y1="10" x2="26.7695" y2="54.7313" gradientUnits="userSpaceOnUse">
<stop stop-color="#BBBBBB"/>
<stop offset="1" stop-color="#888888"/>
</linearGradient>
<linearGradient id="paint3_linear_41743_62735" x1="18" y1="22.4507" x2="36.3918" y2="48.7505" gradientUnits="userSpaceOnUse">
<stop stop-color="#7751B8"/>
<stop offset="1" stop-color="#5A409C"/>
</linearGradient>
<linearGradient id="paint4_linear_41743_62735" x1="18" y1="22.4507" x2="36.3918" y2="48.7505" gradientUnits="userSpaceOnUse">
<stop stop-color="#7751B8"/>
<stop offset="1" stop-color="#5A409C"/>
</linearGradient>
<linearGradient id="paint5_linear_41743_62735" x1="18" y1="22.4507" x2="36.3918" y2="48.7505" gradientUnits="userSpaceOnUse">
<stop stop-color="#7751B8"/>
<stop offset="1" stop-color="#5A409C"/>
</linearGradient>
<linearGradient id="paint6_linear_41743_62735" x1="18" y1="22.4507" x2="36.3918" y2="48.7505" gradientUnits="userSpaceOnUse">
<stop stop-color="#7751B8"/>
<stop offset="1" stop-color="#5A409C"/>
</linearGradient>
<linearGradient id="paint7_linear_41743_62735" x1="41" y1="46" x2="52.3874" y2="65.2711" gradientUnits="userSpaceOnUse">
<stop stop-color="#7751B8"/>
<stop offset="1" stop-color="#5A409C"/>
</linearGradient>
<linearGradient id="paint8_linear_41743_62735" x1="41" y1="46" x2="52.3874" y2="65.2711" gradientUnits="userSpaceOnUse">
<stop stop-color="#7751B8"/>
<stop offset="1" stop-color="#5A409C"/>
</linearGradient>
<linearGradient id="paint9_linear_41743_62735" x1="41" y1="46" x2="52.3874" y2="65.2711" gradientUnits="userSpaceOnUse">
<stop stop-color="#7751B8"/>
<stop offset="1" stop-color="#5A409C"/>
</linearGradient>
</defs>
</svg>

<svg xmlns="http://www.w3.org/2000/svg" width="64" height="64" fill="currentColor"><path fill="url(#a)" d="M4 17a7 7 0 0 1 7-7h42a7 7 0 0 1 7 7v30a7 7 0 0 1-7 7H11a7 7 0 0 1-7-7V17Z"/><path fill="url(#b)" fill-opacity=".2" d="M4 17a7 7 0 0 1 7-7h42a7 7 0 0 1 7 7v30a7 7 0 0 1-7 7H11a7 7 0 0 1-7-7V17Z"/><path fill="url(#c)" fill-rule="evenodd" d="M53 11H11a6 6 0 0 0-6 6v30a6 6 0 0 0 6 6h42a6 6 0 0 0 6-6V17a6 6 0 0 0-6-6Zm-42-1a7 7 0 0 0-7 7v30a7 7 0 0 0 7 7h42a7 7 0 0 0 7-7V17a7 7 0 0 0-7-7H11Z" clip-rule="evenodd"/><path fill="url(#d)" d="M32 36.966a1.5 1.5 0 1 0 0-3 1.5 1.5 0 0 0 0 3Z"/><path fill="url(#e)" d="M27.5 35.466a1.5 1.5 0 1 1-3 0 1.5 1.5 0 0 1 3 0Z"/><path fill="url(#f)" d="M38 36.966a1.5 1.5 0 1 0 0-3 1.5 1.5 0 0 0 0 3Z"/><path fill="url(#g)" fill-rule="evenodd" d="M23.573 22.45c-.335 0-.654.141-.88.388l-4.377 4.774c-.702.766-.159 2 .88 2H21v10.032c0 1.319 1.094 2.387 2.444 2.387h17.112c1.35 0 2.444-1.068 2.444-2.387V29.613h1.804c1.039 0 1.582-1.235.88-2l-4.377-4.775a1.193 1.193 0 0 0-.88-.387H23.573ZM22 29.614h20v10.031c0 .744-.624 1.387-1.444 1.387H23.444c-.82 0-1.444-.643-1.444-1.387V29.613Z" clip-rule="evenodd"/><path fill="#F5F5F5" d="M40 52.5a7.5 7.5 0 0 1 7.5-7.5h9a7.5 7.5 0 0 1 0 15h-9a7.5 7.5 0 0 1-7.5-7.5Z"/><path fill="url(#h)" d="M41 52.5a6.5 6.5 0 0 1 6.5-6.5h1a.5.5 0 0 1 0 1h-1a5.5 5.5 0 1 0 0 11h1a.5.5 0 0 1 0 1h-1a6.5 6.5 0 0 1-6.5-6.5Z"/><path fill="url(#i)" d="M63 52.5a6.5 6.5 0 0 1-6.5 6.5h-1a.5.5 0 0 1 0-1h1a5.5 5.5 0 1 0 0-11h-1a.5.5 0 0 1 0-1h1a6.5 6.5 0 0 1 6.5 6.5Z"/><path fill="url(#j)" d="M47.5 51.979a.5.5 0 0 0 0 1h9.594a.5.5 0 0 0 0-1H47.5Z"/><defs><linearGradient id="a" x1="19.556" x2="23.955" y1="10" y2="54.79" gradientUnits="userSpaceOnUse"><stop stop-color="#fff"/><stop offset="1" stop-color="#EBEBEB"/></linearGradient><linearGradient id="c" x1="22.083" x2="26.77" y1="10" y2="54.731" gradientUnits="userSpaceOnUse"><stop stop-color="#BBB"/><stop offset="1" stop-color="#888"/></linearGradient><linearGradient id="d" x1="18" x2="36.392" y1="22.451" y2="48.751" gradientUnits="userSpaceOnUse"><stop stop-color="#7751B8"/><stop offset="1" stop-color="#5A409C"/></linearGradient><linearGradient id="e" x1="18" x2="36.392" y1="22.451" y2="48.751" gradientUnits="userSpaceOnUse"><stop stop-color="#7751B8"/><stop offset="1" stop-color="#5A409C"/></linearGradient><linearGradient id="f" x1="18" x2="36.392" y1="22.451" y2="48.751" gradientUnits="userSpaceOnUse"><stop stop-color="#7751B8"/><stop offset="1" stop-color="#5A409C"/></linearGradient><linearGradient id="g" x1="18" x2="36.392" y1="22.451" y2="48.751" gradientUnits="userSpaceOnUse"><stop stop-color="#7751B8"/><stop offset="1" stop-color="#5A409C"/></linearGradient><linearGradient id="h" x1="41" x2="52.387" y1="46" y2="65.271" gradientUnits="userSpaceOnUse"><stop stop-color="#7751B8"/><stop offset="1" stop-color="#5A409C"/></linearGradient><linearGradient id="i" x1="41" x2="52.387" y1="46" y2="65.271" gradientUnits="userSpaceOnUse"><stop stop-color="#7751B8"/><stop offset="1" stop-color="#5A409C"/></linearGradient><linearGradient id="j" x1="41" x2="52.387" y1="46" y2="65.271" gradientUnits="userSpaceOnUse"><stop stop-color="#7751B8"/><stop offset="1" stop-color="#5A409C"/></linearGradient><radialGradient id="b" cx="0" cy="0" r="1" gradientTransform="matrix(29.55555 34.83332 -32.22036 27.33848 21.889 21.458)" gradientUnits="userSpaceOnUse"><stop offset=".177" stop-color="#fff"/><stop offset="1" stop-color="#B8B8B8"/></radialGradient></defs></svg>
